X:1
T:Title
%%score { ( 1 3 ) | ( 2 4 ) }
L:1/8
M:3/8
K:C
V:1 treble nm="Grand Piano"
V:3 treble 
V:2 treble 
V:4 treble 
V:1
 z3[Q:1/4=100] | [EG]2 A | G2 E | [EG]2 [_E^F] | [G,F]3- | [G,F]2 z | [Gd]2 [B,G] | %7
 [F,B,F][B,G][B,F] | [CE]3- | [CE]2 [CE] | [FA]2 [GB] | [Ac]BA | [EG]2 F | E2 E | A2 B | [D^Fc]BA | %16
 d3- |[M:1/4] d2 |[M:1/8] z |[M:3/8] [ce]2 [Bd] | [Ac]2 [GB] | [FA]2 [E^G] | [FA]2 B/c/ | %23
 [Bd]2 [Ac] | [GB]2[K:bass] z | [EG]3- | [EG]2 z | [Bd]2 [Ac] | [GB]2 [FA] | [EG]2 [DF] | %30
 [G,CE]2 z | [DF]2 [EG] | [FA]2 [GB] | [Gc]3 | [CG]3 |[M:1/8] z |[M:3/8] [ce]2 [Bd] | [Ac]2 [GB] | %38
 [FA]2 [E^G] | [FA]2 B/c/ | [Bd]2 [Ac] | [GB]2[K:bass] z | [EG]3- | [EG]2 z | [Bd]2 [Ac] | %45
 [GB]2 [FA] | [EG]2 [DF] | [G,CE]2 z | [DF]2 A | [G,EG]2 z | [CG]3- | [CG]3 |[M:1/8] z | %53
[M:3/8] [EG]2 z | G2 E | [EG]2 [_E^F] | [G,F]3- | [G,F]2 z | [Gd]2 [B,G] | [F,B,F][B,G][B,F] | %60
 [CE]3- | [CE]2 [CE] | [FA]2 [GB] | [Ac]BA | [EG]2 F | E2 E | A2 B | [D^Fc]BA | d3- |[M:1/4] d2 | %70
[M:1/8] z |[M:3/8] [ce]2 [Bd] | [Ac]2 [GB] | [FA]2 [E^G] | [FA]2 B/c/ | [Bd]2 [Ac] | %76
 [GB]2[K:bass] z | [EG]3- | [EG]2 z | [Bd]2 [Ac] | [GB]2 [FA] | [EG]2 [DF] | [G,CE]2 z | %83
 [DF]2 [EG] | [FA]2 [GB] | [Ec]3- | [Ec]2 z | [CE] z [CE] | [CE] z [CE] | [CE]3 | [CF] z [EG] | %91
 [EG] z [EG] | [EG] z [EG] | [EG]3 | [Ec] z c | [DB]2 [CA] | [CG] [Ge]2 | [Gd] [Ec]2- | %98
[M:1/4] [Ec]2 |] %99
V:2
 z z E/F/ | z E,A, | C,G,E, | C,2 B, | G,,3- | G,,2[K:treble] B/c/ | G,,2 G, | z G,F, | [C,G,]3- | %9
 [C,G,]3 | [F,,F,]3 | z[K:treble] GF | C,2 [G,D] | C2 C | D2 ^F | z[K:treble] [D^F][CF] | z3 | %17
[M:1/4] F2 |[M:1/8][K:treble] c/d/ |[M:3/8][K:bass] C,E,G, | [F,,F,]2 z | [F,,F,]2 z | %22
 z z[K:treble] G/A/ | [G,,G,]3 | G, z [G,F] | C,2 z | C,,2[K:treble] B/c/ | G,,D,G, | G,,D,F, | %29
 C,E,G, | C,2 D/E/ | G,,D,G, | G,,D,G, | z z G, | C,3 |[M:1/8][K:treble] c/d/ | %36
[M:3/8][K:bass] C,E,G, | [F,,F,]2 z | [F,,F,]2 z | z z[K:treble] G/A/ | [G,,G,]3 | G, z [G,F] | %42
 C,2 z | C,,2[K:treble] B/c/ | G,,D,G, | G,,D,F, | C,E,G, | C,2 D/E/ | z z F | C,2 ^F | [C,,C,]3- | %51
 [C,,C,]3 |[M:1/8][K:treble] E/F/ |[M:3/8][K:bass] z E,A, | C,G,E, | C,2 B, | G,,3- | %57
 G,,2[K:treble] B/c/ | G,,2 G, | z G,F, | [C,G,]3- | [C,G,]3 | [F,,F,]3 | z[K:treble] GF | %64
 C,2 [G,D] | C2 C | D2 ^F | z[K:treble] [D^F][CF] | z3 |[M:1/4] F2 |[M:1/8][K:treble] c/d/ | %71
[M:3/8][K:bass] C,E,G, | [F,,F,]2 z | [F,,F,]2 z | z z[K:treble] G/A/ | [G,,G,]3 | G, z [G,F] | %77
 C,2 z | C,,2[K:treble] B/c/ | G,,D,G, | G,,D,F, | C,E,G, | C,2 D/E/ | G,,D,G, | G,,D,G, | C,2 z | %86
 z z C | [C,,C,]2 z | [C,,C,]2 z | [C,,C,]3 | [G,,G,] z [C,C] | [C,C] z [C,C] | [C,C] z [C,C] | %93
 [C,C]3 | [F,,F,] z [F,,F,] | [G,,G,]2 [F,,F,] | [C,,C,]3 | [G,,F,] [C,C]2- |[M:1/4] [C,C]2 |] %99
V:3
 x3 | G, z z | x3 | x3 | x3 | x3 | x3 | x3 | x3 | x3 | x3 | x3 | x3 | x3 | x3 | x3 | G3 | %17
[M:1/4] x2 |[M:1/8] x |[M:3/8] x3 | x3 | x3 | x3 | x3 | z[K:bass] D,A | z z G,, | C,2 z | x3 | x3 | %29
 x3 | x3 | x3 | x3 | C2 z | x3 |[M:1/8] x |[M:3/8] x3 | x3 | x3 | x3 | x3 | z[K:bass] D,A | %42
 z z G,, | C,2 z | x3 | x3 | x3 | x3 | x3 | x3 | x3 | x3 |[M:1/8] x |[M:3/8] G, z A | x3 | x3 | %56
 x3 | x3 | x3 | x3 | x3 | x3 | x3 | x3 | x3 | x3 | x3 | x3 | G3 |[M:1/4] x2 |[M:1/8] x | %71
[M:3/8] x3 | x3 | x3 | x3 | x3 | z[K:bass] D,A | z z G,, | C,2 z | x3 | x3 | x3 | x3 | x3 | x3 | %85
 z z G,, | C,2 E | x3 | x3 | x3 | x3 | x3 | x3 | x3 | x3 | x3 | x3 | x3 |[M:1/4] x2 |] %99
V:4
 x3 | C,3 | x3 | x3 | x3 | x2[K:treble] x | x3 | G,,3 | x3 | x3 | x3 | [F,,F,]3[K:treble] | C,,3 | %13
 [C,G,]3 | [D,^F,]3 | [D,,D,]3[K:treble] | [G,,G,]3- |[M:1/4] [G,,G,]2 |[M:1/8][K:treble] x | %19
[M:3/8][K:bass] x3 | x3 | x3 | [F,,F,]3[K:treble] | x3 | G,,3 | C,,3 | x2[K:treble] x | x3 | x3 | %29
 x3 | x3 | x3 | x3 | C,3 | x3 |[M:1/8][K:treble] x |[M:3/8][K:bass] x3 | x3 | x3 | %39
 [F,,F,]3[K:treble] | x3 | G,,3 | C,,3 | x2[K:treble] x | x3 | x3 | x3 | x3 | [G,,G,]3 | x3 | x3 | %51
 x3 |[M:1/8][K:treble] x |[M:3/8][K:bass] C,3 | x3 | x3 | x3 | x2[K:treble] x | x3 | G,,3 | x3 | %61
 x3 | x3 | [F,,F,]3[K:treble] | C,,3 | [C,G,]3 | [D,^F,]3 | [D,,D,]3[K:treble] | [G,,G,]3- | %69
[M:1/4] [G,,G,]2 |[M:1/8][K:treble] x |[M:3/8][K:bass] x3 | x3 | x3 | [F,,F,]3[K:treble] | x3 | %76
 G,,3 | C,,3 | x2[K:treble] x | x3 | x3 | x3 | x3 | x3 | x3 | C,,3- | C,,2 z | x3 | x3 | x3 | x3 | %91
 x3 | x3 | x3 | x3 | x3 | x3 | x3 |[M:1/4] x2 |] %99

